Gurmukhi/0A05.svg

<svg enable-background="new 0 0 336 592" viewBox="0 0 336 592" xmlns="http://www.w3.org/2000/svg"><path d="m157.629028 217.59433c3.827042-2.707947 7.381378-5.183075 10.898148-7.710434 3.411285-2.451523 5.49556-1.790466 7.192245 2.219818 6.973725 16.483032 11.539368 33.629227 14.586853 51.211807 1.128144 6.508911 2.051911 13.053223 3.211533 20.49704 5.238693-4.246551 9.81868-7.96463 14.404541-11.675415 9.595978-7.764893 19.62738-14.932434 30.105148-21.445953 2.892197-1.797943 4.026291-3.902115 3.990845-7.304718-.145843-13.995636.105988-27.99617-.112503-41.989853-.076172-4.877945 1.85907-6.562119 6.48822-6.284104 15.481186.929779 30.981888.334275 46.473923.378205 2.485535.007064 4.036224.564834 4.885895 3.109054 1.369415 4.100464 3.168609 8.056656 4.560028 12.150681 1.515564 4.459244.231384 6.297607-4.494751 6.358658-8.496918.109771-17.005707.273086-25.490936-.060028-4.924408-.193345-6.110627 1.646896-6.097626 6.347106.146698 53.155961.090057 106.312455.085998 159.468827-.000122 1.666229.057618 3.337524-.048919 4.99765-.224427 3.496185-2.126923 5.002991-5.34372 3.472412-6.312561-3.003601-12.496383-6.281738-18.69107-9.527161-2.780747-1.456909-2.247574-4.225708-2.248902-6.668365-.016754-30.660675.001831-61.32135-.003479-91.982025-.000396-2.271912.303635-4.595063-.652252-7.075074-3.567444.907715-6.029251 3.250794-8.640961 5.137787-12.021865 8.685883-23.680938 17.830262-34.508697 28.004822-2.667847 2.506928-4.122605 5.374664-4.975617 8.934143-3.461563 14.444245-9.562301 27.66391-19.221435 39.079285-3.497818 4.133789-7.606613 7.625122-12.984131 8.900787-11.9431 2.833222-20.694077-7.141327-17.908051-20.359741 2.895478-13.737823 9.510056-25.928894 19.110306-35.690186 8.085266-8.220916 10.187348-17.130889 9.931809-27.866546-.344879-14.487824-1.137512-28.852066-5.182801-43.744476-3.124099 2.251724-5.957565 4.140762-8.623672 6.242157-11.4104 8.993499-21.820984 19.064636-31.751755 29.648986-2.342712 2.496918-3.7071 5.304444-4.360267 8.75528-2.613518 13.807953-8.131516 26.376892-17.137299 37.252289-3.98288 4.809753-8.586258 9.090728-15.132195 9.838134-12.148376 1.387146-19.297241-9.244171-15.630325-23.014892 3.935791-14.780457 12.869805-26.626068 22.938736-37.586243 3.672615-3.997711 5.021782-7.96878 4.340836-13.015442-1.625656-12.048233-3.882782-23.943008-7.830986-35.496322-1.077103-3.151825-2.855713-4.018113-5.905411-3.969864-7.996414.126465-15.998253-.061676-23.993508.097702-3.283424.065445-5.299304-.921402-6.340564-4.22461-1.299263-4.121627-3.178387-8.060104-4.48552-12.179702-1.06977-3.371521.216896-5.658768 4.031472-5.668518 13.829609-.03537 27.659519.044937 41.489132.010406 3.640037-.009079 4.669731 2.627853 5.801963 5.253265 6.273941 14.548035 11.190552 29.548386 14.971749 44.927781.191414.778534.495445 1.529373 1.025856 3.139511 12.544822-10.506897 24.194236-21.304489 37.272117-30.893921z"/></svg>

<svg version="1.1" id="Layer_1" xmlns="http://www.w3.org/2000/svg" xmlns:xlink="http://www.w3.org/1999/xlink" x="0px" y="0px"
	 width="100%" viewBox="0 0 336 592" enable-background="new 0 0 336 592" xml:space="preserve">
<path fill="#000000" opacity="1.000000" stroke="none" 
	d="
M157.629028,217.594330 
	C161.456070,214.886383 165.010406,212.411255 168.527176,209.883896 
	C171.938461,207.432373 174.022736,208.093430 175.719421,212.103714 
	C182.693146,228.586746 187.258789,245.732941 190.306274,263.315521 
	C191.434418,269.824432 192.358185,276.368744 193.517807,283.812561 
	C198.756500,279.566010 203.336487,275.847931 207.922348,272.137146 
	C217.518326,264.372253 227.549728,257.204712 238.027496,250.691193 
	C240.919693,248.893250 242.053787,246.789078 242.018341,243.386475 
	C241.872498,229.390839 242.124329,215.390305 241.905838,201.396622 
	C241.829666,196.518677 243.764908,194.834503 248.394058,195.112518 
	C263.875244,196.042297 279.375946,195.446793 294.867981,195.490723 
	C297.353516,195.497787 298.904205,196.055557 299.753876,198.599777 
	C301.123291,202.700241 302.922485,206.656433 304.313904,210.750458 
	C305.829468,215.209702 304.545288,217.048065 299.819153,217.109116 
	C291.322235,217.218887 282.813446,217.382202 274.328217,217.049088 
	C269.403809,216.855743 268.217590,218.695984 268.230591,223.396194 
	C268.377289,276.552155 268.320648,329.708649 268.316589,382.865021 
	C268.316467,384.531250 268.374207,386.202545 268.267670,387.862671 
	C268.043243,391.358856 266.140747,392.865662 262.923950,391.335083 
	C256.611389,388.331482 250.427567,385.053345 244.232880,381.807922 
	C241.452133,380.351013 241.985306,377.582214 241.983978,375.139557 
	C241.967224,344.478882 241.985809,313.818207 241.980499,283.157532 
	C241.980103,280.885620 242.284134,278.562469 241.328247,276.082458 
	C237.760803,276.990173 235.298996,279.333252 232.687286,281.220245 
	C220.665421,289.906128 209.006348,299.050507 198.178589,309.225067 
	C195.510742,311.731995 194.055984,314.599731 193.202972,318.159210 
	C189.741409,332.603455 183.640671,345.823120 173.981537,357.238495 
	C170.483719,361.372284 166.374924,364.863617 160.997406,366.139282 
	C149.054306,368.972504 140.303329,358.997955 143.089355,345.779541 
	C145.984833,332.041718 152.599411,319.850647 162.199661,310.089355 
	C170.284927,301.868439 172.387009,292.958466 172.131470,282.222809 
	C171.786591,267.734985 170.993958,253.370743 166.948669,238.478333 
	C163.824570,240.730057 160.991104,242.619095 158.324997,244.720490 
	C146.914597,253.713989 136.504013,263.785126 126.573242,274.369476 
	C124.230530,276.866394 122.866142,279.673920 122.212975,283.124756 
	C119.599457,296.932709 114.081459,309.501648 105.075676,320.377045 
	C101.092796,325.186798 96.489418,329.467773 89.943481,330.215179 
	C77.795105,331.602325 70.646240,320.971008 74.313156,307.200287 
	C78.248947,292.419830 87.182961,280.574219 97.251892,269.614044 
	C100.924507,265.616333 102.273674,261.645264 101.592728,256.598602 
	C99.967072,244.550369 97.709946,232.655594 93.761742,221.102280 
	C92.684639,217.950455 90.906029,217.084167 87.856331,217.132416 
	C79.859917,217.258881 71.858078,217.070740 63.862823,217.230118 
	C60.579399,217.295563 58.563519,216.308716 57.522259,213.005508 
	C56.222996,208.883881 54.343872,204.945404 53.036739,200.825806 
	C51.966969,197.454285 53.253635,195.167038 57.068211,195.157288 
	C70.897820,195.121918 84.727730,195.202225 98.557343,195.167694 
	C102.197380,195.158615 103.227074,197.795547 104.359306,200.420959 
	C110.633247,214.968994 115.549858,229.969345 119.331055,245.348740 
	C119.522469,246.127274 119.826500,246.878113 120.356911,248.488251 
	C132.901733,237.981354 144.551147,227.183762 157.629028,217.594330 
z"/>
</svg>
